**kern	**kern	**kern	**text	**kern	**text	**kern	**text	**kern	**text
*part6	*part5	*part4	*part4	*part3	*part3	*part2	*part2	*part1	*part1
*staff6	*staff5	*staff4	*staff4	*staff3	*staff3	*staff2	*staff2	*staff1	*staff1
*I"保坂	*I"ぽぽ	*I"あきこ	*	*I"ぶってぃー	*	*I"みゆ	*	*I"まゆ	*
*I'ほ	*I'P	*I'あ	*	*I'ぶ	*	*I'み	*	*I'ま	*
*clefX	*clefF^4	*clefG2	*	*clefG2	*	*clefG2	*	*clefG2	*
*	*Trd0c0	*	*	*	*	*	*	*	*
*k[]	*k[f#c#g#d#a#e#]	*k[f#c#g#d#a#e#]	*	*k[f#c#g#d#a#e#]	*	*k[f#c#g#d#a#e#]	*	*k[f#c#g#d#a#e#]	*
*M4/4	*M4/4	*M4/4	*	*M4/4	*	*M4/4	*	*M4/4	*
=1	=1	=1	=1	=1	=1	=1	=1	=1	=1
4Rgg/	1r	1r	.	1r	.	1r	.	1r	.
4Rgg/	.	.	.	.	.	.	.	.	.
4Rgg/	.	.	.	.	.	.	.	.	.
4Rcc/	.	.	.	.	.	.	.	.	.
=2	=2	=2	=2	=2	=2	=2	=2	=2	=2
4Raa/	16enKL	1r	.	1r	.	1r	.	1r	.
.	8.f#J	.	.	.	.	.	.	.	.
8Rgg/L	8f#L	.	.	.	.	.	.	.	.
8Rgg/J	8f#J	.	.	.	.	.	.	.	.
8Rgg/L	16f#LL	.	.	.	.	.	.	.	.
.	16eJ	.	.	.	.	.	.	.	.
16Rgg/L	8eJ	.	.	.	.	.	.	.	.
16Rgg/JJ	.	.	.	.	.	.	.	.	.
16Rgg/LL	8eL	.	.	.	.	.	.	.	.
16Rgg/J	.	.	.	.	.	.	.	.	.
8Rgg/J	8eJ	.	.	.	.	.	.	.	.
=3	=3	=3	=3	=3	=3	=3	=3	=3	=3
8Rgg/L	16enLL	1r	.	1r	.	1r	.	1r	.
.	16eJ	.	.	.	.	.	.	.	.
8Rgg/	8f#J	.	.	.	.	.	.	.	.
8Rgg/	8f#L	.	.	.	.	.	.	.	.
8Rgg/J	8f#J	.	.	.	.	.	.	.	.
8Rgg/L	16f#LL	.	.	.	.	.	.	.	.
.	16f#J	.	.	.	.	.	.	.	.
8Rgg/J	8anJ	.	.	.	.	.	.	.	.
8Rgg/L	4e'	.	.	.	.	.	.	.	.
16Rgg/L	.	.	.	.	.	.	.	.	.
16Rgg/JJ	.	.	.	.	.	.	.	.	.
=4	=4	=4	=4	=4	=4	=4	=4	=4	=4
8Rgg/L	4f#	1r	.	1r	.	1r	.	1r	.
8Rgg/	.	.	.	.	.	.	.	.	.
8Rgg/	8f#L	.	.	.	.	.	.	.	.
8Rgg/J	8f#J	.	.	.	.	.	.	.	.
8.Rgg/L	16f#LL	.	.	.	.	.	.	.	.
.	16enJ	.	.	.	.	.	.	.	.
.	8eJ	.	.	.	.	.	.	.	.
16Rgg/Jk	.	.	.	.	.	.	.	.	.
16Rgg/LL	8eL	.	.	.	.	.	.	.	.
16Rgg/J	.	.	.	.	.	.	.	.	.
8Rgg/J	8eJ	.	.	.	.	.	.	.	.
=5	=5	=5	=5	=5	=5	=5	=5	=5	=5
8Rgg/L	16enLL	1r	.	1r	.	1r	.	1r	.
.	16eJ	.	.	.	.	.	.	.	.
8Rgg/	8f#J	.	.	.	.	.	.	.	.
8Rgg/	8f#L	.	.	.	.	.	.	.	.
8Rgg/J	8f#J	.	.	.	.	.	.	.	.
8Rgg/L	16f#LL	.	.	.	.	.	.	.	.
.	16f#J	.	.	.	.	.	.	.	.
8Rgg/J	8anJ	.	.	.	.	.	.	.	.
8Rgg/L	4e'	.	.	.	.	.	.	.	.
16Rgg/L	.	.	.	.	.	.	.	.	.
16Rgg/JJ	.	.	.	.	.	.	.	.	.
=6	=6	=6	=6	=6	=6	=6	=6	=6	=6
4Raa/	4F#	[1A#	fuh	[1c#	fuh	1r	.	1r	.
8Rgg/L	8F#L	.	.	.	.	.	.	.	.
8Rgg/J	8F#J	.	.	.	.	.	.	.	.
8.Rgg/L	16F#LL	.	.	.	.	.	.	.	.
.	16EnJ	.	.	.	.	.	.	.	.
.	8EJ	.	.	.	.	.	.	.	.
16Rgg/Jk	.	.	.	.	.	.	.	.	.
16r	8EL	.	.	.	.	.	.	.	.
16Rgg/KL	.	.	.	.	.	.	.	.	.
8Rgg/J	8EJ	.	.	.	.	.	.	.	.
=7	=7	=7	=7	=7	=7	=7	=7	=7	=7
8Rgg/L	16EnLL	1A#]	.	1c#]	.	1r	.	1r	.
.	16EJ	.	.	.	.	.	.	.	.
8Rgg/	8F#J	.	.	.	.	.	.	.	.
8Rgg/	8F#L	.	.	.	.	.	.	.	.
8Rgg/J	8F#J	.	.	.	.	.	.	.	.
8Rgg/L	16F#LL	.	.	.	.	.	.	.	.
.	16F#J	.	.	.	.	.	.	.	.
8Rgg/J	8AnJ	.	.	.	.	.	.	.	.
8Rgg/L	4E'	.	.	.	.	.	.	.	.
16Rgg/L	.	.	.	.	.	.	.	.	.
16Rgg/JJ	.	.	.	.	.	.	.	.	.
=8	=8	=8	=8	=8	=8	=8	=8	=8	=8
4Raa/	4F#	1A#	fuh	1c#	fuh	1f#	fuh	1r	.
8Rgg/L	8F#L	.	.	.	.	.	.	.	.
8Rgg/J	8F#J	.	.	.	.	.	.	.	.
8Rgg/L	16F#LL	.	.	.	.	.	.	.	.
.	16EnJ	.	.	.	.	.	.	.	.
8Rgg/	8EJ	.	.	.	.	.	.	.	.
8Rgg/	8EL	.	.	.	.	.	.	.	.
8Rgg/J	8EJ	.	.	.	.	.	.	.	.
=9	=9	=9	=9	=9	=9	=9	=9	=9	=9
8Rcc/L	16EnLL	1c#	wah	1f#	wah	1cc#	wah	1r	.
.	16EJ	.	.	.	.	.	.	.	.
8Rf/J	8F#J	.	.	.	.	.	.	.	.
16Rf\KL	8F#L	.	.	.	.	.	.	.	.
8Ree\	.	.	.	.	.	.	.	.	.
.	8F#J	.	.	.	.	.	.	.	.
16Rf\Jk	.	.	.	.	.	.	.	.	.
8Rcc/L	16F#LL	.	.	.	.	.	.	.	.
.	16F#J	.	.	.	.	.	.	.	.
16Rcc/L	8AnJ	.	.	.	.	.	.	.	.
16Rf/JJ	.	.	.	.	.	.	.	.	.
8Rcc/L	4E'	.	.	.	.	.	.	.	.
8Rcc/J	.	.	.	.	.	.	.	.	.
=10	=10	=10	=10	=10	=10	=10	=10	=10	=10
8.Rcc/L	8.c#'L	8.e#'L	da	8.g#'L	da	8.cc#'L	da	1r	.
16Rcc/Jk	16c#Jk	16e#Jk	tta	16g#Jk	tta	16cc#Jk	tta	.	.
4r	4r	4r	.	4r	.	4r	.	.	.
8.Rcc/L	8.c#'L	8.e#'L	da	8.g#'L	da	8.cc#'L	da	.	.
16Rcc/Jk	16c#Jk	16e#Jk	tta	16g#Jk	tta	16cc#Jk	tta	.	.
8r	4r	4r	.	4r	.	4r	.	.	.
8Rf\	.	.	.	.	.	.	.	.	.
=11	=11	=11	=11	=11	=11	=11	=11	=11	=11
8Rf\L	8c#L	4e#	ta	4g#	ta	4b	ta	1r	.
8Raa\J	8C#	.	.	.	.	.	.	.	.
4Rf\	8En	4r	.	4r	.	4r	.	.	.
.	8F#J	.	.	.	.	.	.	.	.
4Raa/	8AnL	2r	.	2r	.	2r	.	.	.
.	8F#	.	.	.	.	.	.	.	.
8Rf\L	8A	.	.	.	.	.	.	.	.
8Rcc\J	8BJ	.	.	.	.	.	.	.	.
=12||	=12||	=12||	=12||	=12||	=12||	=12||	=12||	=12||	=12||
*	*k[f#c#g#]	*k[f#c#g#]	*	*k[f#c#g#]	*	*k[f#c#g#]	*	*k[f#c#g#]	*
4Raa/	4F#'	2.c#	hah	2.f#	hah	2.a	hah	4a'	スタンド
8Rcc/L	8.F#L	.	.	.	.	.	.	8f#L	アップ！
16Rgg/L	.	.	.	.	.	.	.	8aJ	モンス
16Rf/JJ	16F#Jk	.	.	.	.	.	.	.	.
8Rf\L	16r	.	.	.	.	.	.	8r	.
.	16F#KL	.	.	.	.	.	.	.	.
8Rf\	8F#J	.	.	.	.	.	.	8f#	ター
8Rcc\	4F#	8r	.	8r	.	8r	.	8r	.
8Rgg\J	.	8c#	ちょう	8f#	ちょう	8a	ちょう	8a	ちょう
=13	=13	=13	=13	=13	=13	=13	=13	=13	=13
8Rf\L	4A'	8r	.	8r	.	8r	.	8r	.
8Rgg\	.	8e	じょう	8g#	じょう	8b	じょう	8b	じょう
8Rcc\	8AL	8r	.	8r	.	8r	.	8r	.
8Rgg\J	[8AJ	[8e	へ	[8a	へ	[8cc#	へ	[8cc#	へ
8Rf\L	8AL]	4e]	.	4a]	.	4cc#]	.	4cc#]	.
8Rf\	8A	.	.	.	.	.	.	.	.
8Rcc\	8A	4e	woo	4a	woo	4cc#	woo	8f#L	み
8Rgg\J	8AJ	.	.	.	.	.	.	8cc#J	ち
=14	=14	=14	=14	=14	=14	=14	=14	=14	=14
8Rf\L	4B'	2.d#X	ー	2.f#	ー	2.b	ー	4b	なき
8Rgg\	.	.	.	.	.	.	.	.	.
8Rcc\	8.BL	.	.	.	.	.	.	8f#L	み
8Rgg\J	.	.	.	.	.	.	.	8cc#J	ち
.	16BJk	.	.	.	.	.	.	.	.
8Rf\L	8r	.	.	.	.	.	.	4b	を
8Rf\	8B	.	.	.	.	.	.	.	.
8Rcc\	4B	8r	.	8r	.	8r	.	8r	.
8Rgg\J	.	[8dn	da	[8f#	da	[8a	da	[8b	き
=15	=15	=15	=15	=15	=15	=15	=15	=15	=15
8Rf\L	8dL	4d]	.	4f#]	.	4a]	.	8bL]	.
8Rgg\	8dJ	.	.	.	.	.	.	8a	り
8Rcc\	8.dL	8r	.	8r	.	8r	.	8b	ひ
8Rgg\J	.	[8e	ta	[8g#	ta	[8b	ta	8ccnJ	ら
.	16dJk	.	.	.	.	.	.	.	.
8Rf\L	8eL	4e]	.	4g#]	.	4b]	.	8bL	く
8Rf\	8e	.	.	.	.	.	.	8aJ	と
8Rcc\	8e	4B	hah	4e	hah	4g#	hah	4f#	き
8Rgg\J	8eJ	.	.	.	.	.	.	.	.
=16	=16	=16	=16	=16	=16	=16	=16	=16	=16
4Raa/	4F#'	2.c#	ー	2.f#	ー	2.a	ー	4a'	スタンド
8Rcc/L	8.F#L	.	.	.	.	.	.	8f#L	アップ！
16Rgg/L	.	.	.	.	.	.	.	8aJ	ファイ
16Rf/JJ	16F#Jk	.	.	.	.	.	.	.	.
8Rf\L	16r	.	.	.	.	.	.	8r	.
.	16F#KL	.	.	.	.	.	.	.	.
8Rgg\	8F#J	.	.	.	.	.	.	8f#	ター
8Rcc\	4F#	8r	.	8r	.	8r	.	8r	.
8Rgg\J	.	8c#	とん	8f#	とん	8a	とん	8a	とん
=17	=17	=17	=17	=17	=17	=17	=17	=17	=17
8Rf\L	4A'	8r	.	8r	.	8r	.	8r	.
8Rgg\	.	8e	が	8g#	が	8b	が	8b	が
8Rcc\	8AL	8r	.	8r	.	8r	.	8r	.
8Rgg\J	[8AJ	[8e	って	[8a	って	[8cc#	って	[8cc#	って
8Rf\L	8AL]	4e]	.	4a]	.	4cc#]	.	4cc#]	.
8Rf\	8A	.	.	.	.	.	.	.	.
8Rcc\	8A	4e	woo	4a	woo	4cc#	woo	8f#L	go-
8Rgg\J	8AJ	.	.	.	.	.	.	8cc#J	-ing
=18	=18	=18	=18	=18	=18	=18	=18	=18	=18
8Rf\L	4B'	2.d#X	ー	2.f#	ー	2.b	ー	4b	on
8Rgg\	.	.	.	.	.	.	.	.	.
8Rcc\	8.BL	.	.	.	.	.	.	8f#L	mo-
8Rgg\J	.	.	.	.	.	.	.	8eeJ	-vin'
.	16BJk	.	.	.	.	.	.	.	.
8Rf\L	8r	.	.	.	.	.	.	8cc#L	o-
8Rf\	8BL	.	.	.	.	.	.	8bJ	-n
8Rcc\	8B	8r	.	8r	.	8r	.	8r	.
[8Raa\J	[8dJ	[8dn	da	[8f#	da	[8a	da	[8b	た
=19	=19	=19	=19	=19	=19	=19	=19	=19	=19
8Raa/L]	8dL]	4d]	.	4f#]	.	4a]	.	8bL]	.
8Rf/	8A	.	.	.	.	.	.	8a	た
8Rcc/	8d	8r	.	8r	.	8r	.	8b	か
8Rgg/J	8AJ	[8e	ta	[8g#	ta	[8b	ta	8ccnJ	い
8Rf\L	8eL	4e]	.	4g#]	.	4b]	.	8bL	の
8Rf\	8B	.	.	.	.	.	.	8a	う
8Rcc\	8e	8BL	hah	8eL	hah	8g#L	hah	8f#	た
[8Raa\J	[8dJ	[8dJ	ー	[8f#J	ー	[8aJ	ー	[8bJ	み
=20	=20	=20	=20	=20	=20	=20	=20	=20	=20
8Raa/L]	8dL]	4d]	.	4f#]	.	4a]	.	8bL]	.
8Rf/	8A	.	.	.	.	.	.	8a	ち
8Rcc/	8d	8r	.	8r	.	8r	.	8b	の
8Rgg/J	8AJ	[8e	ta	[8g#	ta	[8b	ta	8ccnJ	せ
8Rf\L	8eL	4e]	.	4g#]	.	4b]	.	8bL	か
8Rf\	8E	.	.	.	.	.	.	8a	い
8Rcc\	8e	8eL	hah	8g#L	hah	8bL	hah	8f#	へ
[8Raa\J	[8dJ	[8f#J	ー	[8aJ	ー	[8ddJ	ー	[8f#J	タ
=21	=21	=21	=21	=21	=21	=21	=21	=21	=21
8Raa/L]	8dL]	2f#]	.	2a]	.	2dd]	.	8f#L]	.
8Rf/	8A	.	.	.	.	.	.	8eJ	マ
8Rcc/	8d	.	.	.	.	.	.	4f#	シイ
8Ree/J	8AJ	.	.	.	.	.	.	.	.
8Rf\L	8eL	2g#	ー	2b	ー	2ee	ー	8aL	レ
8Rcc\	8EJ	.	.	.	.	.	.	8f#J	ボ
8Rf\	4e	.	.	.	.	.	.	4a	リュー
8Rcc\J	.	.	.	.	.	.	.	.	.
=22	=22	=22	=22	=22	=22	=22	=22	=22	=22
*	*k[f#c#g#d#a#e#]	*k[f#c#g#d#a#e#]	*	*k[f#c#g#d#a#e#]	*	*k[f#c#g#d#a#e#]	*	*k[f#c#g#d#a#e#]	*
4Raa/	4F#	1f#	ー	1a#	ー	1cc#	ー	1f#	ション
8Rcc/L	8F#L	.	.	.	.	.	.	.	.
8Rf/J	8F#J	.	.	.	.	.	.	.	.
16Ree/KL	16F#LL	.	.	.	.	.	.	.	.
8.Rcc/J	16EnJ	.	.	.	.	.	.	.	.
.	8EJ	.	.	.	.	.	.	.	.
8Rcc/L	8EL	.	.	.	.	.	.	.	.
8Ree/J	8EJ	.	.	.	.	.	.	.	.
=23	=23	=23	=23	=23	=23	=23	=23	=23	=23
8Rf\L	16EnLL	1r	.	1r	.	1r	.	1r	.
.	16EJ	.	.	.	.	.	.	.	.
8Ree\J	8F#J	.	.	.	.	.	.	.	.
8Rcc/L	8F#L	.	.	.	.	.	.	.	.
16Rgg/L	8F#J	.	.	.	.	.	.	.	.
16Rgg/JJ	.	.	.	.	.	.	.	.	.
16Ree/KL	16F#LL	.	.	.	.	.	.	.	.
8.Rcc/J	16F#J	.	.	.	.	.	.	.	.
.	8AnJ	.	.	.	.	.	.	.	.
8Rcc/L	4E'	.	.	.	.	.	.	.	.
16Ree/L	.	.	.	.	.	.	.	.	.
16Ree/JJ	.	.	.	.	.	.	.	.	.
=24	=24	=24	=24	=24	=24	=24	=24	=24	=24
8Rf\L	4F#	[1A#	woh	1r	.	1r	.	2r	.
8Ree\	.	.	.	.	.	.	.	.	.
8Rcc\	8F#L	.	.	.	.	.	.	.	.
8Rf\J	8F#J	.	.	.	.	.	.	.	.
8Rgg/L	16F#LL	.	.	.	.	.	.	[2c#	woh
.	16EnJ	.	.	.	.	.	.	.	.
8Rf/	8EJ	.	.	.	.	.	.	.	.
8Rcc/	8EL	.	.	.	.	.	.	.	.
8Rgg/J	8EJ	.	.	.	.	.	.	.	.
=25	=25	=25	=25	=25	=25	=25	=25	=25	=25
8Rf\L	16EnLL	1A#]	.	1f#	woh	2r	.	1c#]	.
.	16EJ	.	.	.	.	.	.	.	.
8Rgg\J	8F#J	.	.	.	.	.	.	.	.
4Raa/	8F#L	.	.	.	.	.	.	.	.
.	8F#J	.	.	.	.	.	.	.	.
8Rf\L	16F#LL	.	.	.	.	2cc#	woh	.	.
.	16F#J	.	.	.	.	.	.	.	.
8Rcc\	8AnJ	.	.	.	.	.	.	.	.
8Rcc\	4E'	.	.	.	.	.	.	.	.
8Rcc\J	.	.	.	.	.	.	.	.	.
=26	=26	=26	=26	=26	=26	=26	=26	=26	=26
4Raa/	8F#L	4c#	tuh	4f#	tuh	4a#	tuh	8r	.
.	8F#J	.	.	.	.	.	.	8c#L	ゆう
8Rcc/L	16A#KL	8.c#L	tuh	8.f#L	tuh	8.a#L	tuh	8c#	が
.	8B	.	.	.	.	.	.	.	.
8Rf/J	.	.	.	.	.	.	.	8c#J	た
.	[16c#Jk	16c#Jk	lu	16f#Jk	lu	16a#Jk	lu	.	.
8Rgg/L	16c#KL]	8r	.	8r	.	8r	.	8enL	ハ
.	8en	.	.	.	.	.	.	.	.
8Rf/	.	4c#	tuh	4f#	tuh	4a#	tuh	8f#J	リ
.	16c#Jk	.	.	.	.	.	.	.	.
8Rcc/	8eL	.	.	.	.	.	.	4f#	ケーン
8Rgg/J	8f#J	8c#	lu	8f#	lu	8a#	lu	.	.
=27	=27	=27	=27	=27	=27	=27	=27	=27	=27
8Rf\L	8F#L	4B	tuh	4en	tuh	4g#	tuh	8r	.
8Rgg\	8F#J	.	.	.	.	.	.	8cnL	と
8Rcc\	16A#KL	8.BL	tuh	8.eL	tuh	8.g#L	tuh	8B	り
.	8B	.	.	.	.	.	.	.	.
8Rf\J	.	.	.	.	.	.	.	8AnJ	も
.	[16c#Jk	16BJk	lu	16eJk	lu	16g#Jk	lu	.	.
8Rgg/L	16c#KL]	8r	.	8r	.	8r	.	8BL	ざ
.	8en	.	.	.	.	.	.	.	.
8Rf/	.	4B	tuh	4e	tuh	4g#	tuh	8AJ	わ
.	16c#Jk	.	.	.	.	.	.	.	.
8Rcc/	8eL	.	.	.	.	.	.	4c#X	めく
8Rgg/J	8f#J	8B	lu	8e	lu	8g#	lu	.	.
=28	=28	=28	=28	=28	=28	=28	=28	=28	=28
8Rf\L	8F#L	2B	woh	2d#	woh	2f#	woh	8r	.
8Rgg\	8F#J	.	.	.	.	.	.	8enL	た
8Rcc\	16A#KL	.	.	.	.	.	.	8B	か
.	8B	.	.	.	.	.	.	.	.
8Rf\J	.	.	.	.	.	.	.	8AnJ	ま
.	[16c#Jk	.	.	.	.	.	.	.	.
8Rcc/L	16c#KL]	2d#	ー	2f#	ー	2b	ー	8BL	る
.	8en	.	.	.	.	.	.	.	.
8Rf/	.	.	.	.	.	.	.	8A	こ
.	16c#Jk	.	.	.	.	.	.	.	.
8Rcc/	8eL	.	.	.	.	.	.	8A	どう
8Rgg/J	8f#J	.	.	.	.	.	.	8BJ	に
=29	=29	=29	=29	=29	=29	=29	=29	=29	=29
8Rcc/L	8c#L	4e#'	ta	4g#'	ta	4cc#'	ta	8c#L	あ
8Rf/	8G#	.	.	.	.	.	.	8B#X	ば
8Rcc/	8c#	4e#'	ta	4g#'	ta	4cc#'	ta	8c#	れ
8Rf/J	8G#J	.	.	.	.	.	.	8B#J	る
8Rcc/L	8c#L	4e#'	ta	4g#'	ta	4cc#'	ta	4c#	パ
8Rf/	8G#	.	.	.	.	.	.	.	.
8Rcc/	8c#	4e#'	ta	4g#'	ta	4cc#'	ta	4c#	ッション
8Rf/J	8c#J	.	.	.	.	.	.	.	.
=30	=30	=30	=30	=30	=30	=30	=30	=30	=30
4Raa/	8F#L	4c#	tuh	4f#	tuh	[2.a#	fuh	8r	.
.	8F#J	.	.	.	.	.	.	4c#	つ
8Rcc/L	16A#KL	8.c#L	tuh	8.f#L	tuh	.	.	.	.
.	8B	.	.	.	.	.	.	.	.
8Rf/J	.	.	.	.	.	.	.	8c#	っぱ
.	[16c#Jk	16c#Jk	lu	16f#Jk	lu	.	.	.	.
8Rgg/L	16c#KL]	8r	.	8r	.	.	.	8enL	し
.	8en	.	.	.	.	.	.	.	.
8Rf/	.	4c#	tuh	4f#	tuh	.	.	8f#	る
.	16c#Jk	.	.	.	.	.	.	.	.
8Rcc/	8eL	.	.	.	.	8a#L]	.	8f#	の
8Rgg/J	8f#J	8c#	lu	8f#	lu	16g#L	ー	8eJ	さ
.	.	.	.	.	.	16a#JJ	ー	.	.
=31	=31	=31	=31	=31	=31	=31	=31	=31	=31
8Rf\L	8F#L	4B	tuh	4en	tuh	4.g#	ー	8anL	go
8Rgg\	8F#J	.	.	.	.	.	.	8a	to
8Rcc\	16A#KL	8.BL	tuh	8.eL	tuh	.	.	8f#	the
.	8B	.	.	.	.	.	.	.	.
8Rf\J	.	.	.	.	.	[8en	fuh	[8aJ	fu-
.	[16c#Jk	16BJk	lu	16eJk	lu	.	.	.	.
8Rgg/L	16c#KL]	8r	.	8r	.	4e]	.	8aL]	.
.	8en	.	.	.	.	.	.	.	.
8Rf/	.	4B	tuh	4e	tuh	.	.	8f#	-ture
.	16c#Jk	.	.	.	.	.	.	.	.
8Rcc/	8eL	.	.	.	.	4b	ー	8en	.
8Rgg/J	8f#J	8B	lu	8e	lu	.	.	8f#J	.
=32	=32	=32	=32	=32	=32	=32	=32	=32	=32
8Rf\L	8F#L	1d#	woo	1f#	woo	1b	woo	8r	.
8Rgg\	8F#J	.	.	.	.	.	.	8an	ride
8Rcc\	16A#KL	.	.	.	.	.	.	4f#	on
.	8B	.	.	.	.	.	.	.	.
8Rf\J	.	.	.	.	.	.	.	.	.
.	[16c#Jk	.	.	.	.	.	.	.	.
8Rgg/L	16c#KL]	.	.	.	.	.	.	8.bL	ride
.	8en	.	.	.	.	.	.	.	.
8Rf/	.	.	.	.	.	.	.	.	.
.	16c#Jk	.	.	.	.	.	.	16f#Jk	on
8Rcc/	8eL	.	.	.	.	.	.	8r	.
8Rgg/J	8f#J	.	.	.	.	.	.	8c#	ま
=33	=33	=33	=33	=33	=33	=33	=33	=33	=33
8Rf\L	8F#L	4r	.	4r	.	4r	.	8c#L	わ
8Rgg\	8F#J	.	.	.	.	.	.	8en	り
8Rcc\	16A#KL	2.e#	hah	2.g#	hah	2.cc#	hah	8f#	だ
.	8B	.	.	.	.	.	.	.	.
8Rgg\J	.	.	.	.	.	.	.	8g#J	す
.	[16c#Jk	.	.	.	.	.	.	.	.
8Rgg/L	16c#KL]	.	.	.	.	.	.	8anL	メ
.	8en	.	.	.	.	.	.	.	.
8Rf/	.	.	.	.	.	.	.	8f#J	リー
.	16c#Jk	.	.	.	.	.	.	.	.
8Rcc/	8eL	.	.	.	.	.	.	4cc#	ゴー
8Rcc/J	8f#J	.	.	.	.	.	.	.	.
=34	=34	=34	=34	=34	=34	=34	=34	=34	=34
4Raa/	8F#L	1c#	ー	1f#	ー	1a#	ー	4.a#	ラ
.	8F#J	.	.	.	.	.	.	.	.
8Rcc/L	16A#KL	.	.	.	.	.	.	.	.
.	8B	.	.	.	.	.	.	.	.
8Rf/J	.	.	.	.	.	.	.	[8f#	ウンド
.	[16c#Jk	.	.	.	.	.	.	.	.
8Rgg/L	16c#KL]	.	.	.	.	.	.	2f#]	.
.	8en	.	.	.	.	.	.	.	.
8Rf/	.	.	.	.	.	.	.	.	.
.	16c#Jk	.	.	.	.	.	.	.	.
8Rcc/	8eL	.	.	.	.	.	.	.	.
8Rgg/J	8eJ	.	.	.	.	.	.	.	.
=35	=35	=35	=35	=35	=35	=35	=35	=35	=35
8Rf\L	8f#	4A#	woh	2r	.	2r	.	2r	.
8Rgg\	4en	.	.	.	.	.	.	.	.
8Rcc\	.	2.c#	woh	.	.	.	.	.	.
8Rcc\J	8c#	.	.	.	.	.	.	.	.
16r	8c#L	.	.	2f#	woh	4r	.	4r	.
8.Rcc/	.	.	.	.	.	.	.	.	.
.	8e	.	.	.	.	.	.	.	.
8Rcc/L	8c#	.	.	.	.	4a#	woh	8r	.
8Rcc/J	8cnJ	.	.	.	.	.	.	8c#	イ
=36	=36	=36	=36	=36	=36	=36	=36	=36	=36
4Raa/	8BL	4d#	tuh	4f#	tuh	4b	tuh	4b	メー
.	8BJ	.	.	.	.	.	.	.	.
8Rcc/L	8AnL	8r	.	8r	.	8r	.	16anLL	ジ
.	.	.	.	.	.	.	.	16aJ	し
8Rf/J	16AL	[8d#	tuh	[8f#	tuh	[8b	tuh	[8bJ	た
.	[16BJJ	.	.	.	.	.	.	.	.
8Rgg/L	16BLL]	2d#]	.	2f#]	.	2b]	.	8bL]	.
.	16BJ	.	.	.	.	.	.	.	.
8Rf/	8BJ	.	.	.	.	.	.	8a	ら
8Rcc/	8AL	.	.	.	.	.	.	8f#	ば
8Rgg/J	8A#XJ	.	.	.	.	.	.	8cc#J	アク
=37	=37	=37	=37	=37	=37	=37	=37	=37	=37
8Rf\L	8BL	4d#	tuh	4f#	tuh	4an	tuh	8r	.
8Rgg\	8B	.	.	.	.	.	.	[4.b	ション
8Rcc\	8F#	8r	.	8r	.	8r	.	.	.
8Rf\J	[8BJ	[8d#	tuh	[8f#	tuh	[8a	tuh	.	.
8Rgg/L	8BL]	8d#]	.	8f#]	.	8a]	.	4b]	.
8Rf/	8F#	8r	.	8r	.	8r	.	.	.
8Rcc/	8An	4f#	そう	4f#	そう	4f#	そう	4f#	そう
8Rgg/J	8F#J	.	.	.	.	.	.	.	.
=38	=38	=38	=38	=38	=38	=38	=38	=38	=38
8Rf\L	8r	8r	.	8r	.	8r	.	8r	.
8Rcc\	8c#	8c#L	そ	8c#L	そ	8cc#L	そ	8c#L	そ
8Rcc\	4c#	8c#	れ	8c#	れ	8cc#	れ	8c#	れ
8Rf\J	.	8c#J	が	8c#J	が	8cc#J	が	8c#J	が
8Rcc/L	8enL	8enL	It's	8enL	It's	8eenL	It's	8enL	It's
8Rf/	8f#J	8f#J	my	8f#J	my	8ff#J	my	8f#J	my
8Rcc/	4f#	4f#	rule	4f#	rule	4ff#	rule	4f#	rule
8Rgg/J	.	.	.	.	.	.	.	.	.
=39	=39	=39	=39	=39	=39	=39	=39	=39	=39
8Rf\L	8r	8r	.	8r	.	8r	.	8r	.
8Rcc\	8c#	8d#L	め	8e#L	め	8bL	め	8c#L	め
8Rcc\	4c#	8d#	ざ	8e#	ざ	8b	ざ	8c#	ざ
8Rf\J	.	8d#J	せ	8e#J	せ	8bJ	せ	8c#J	せ
8Rcc/L	8enL	8BL	さい	8g#L	さい	8bL	さい	8enL	さい
8Rf/	8f#J	8c#J	だい	8a#J	だい	8cc#J	だい	8f#J	だい
8Rcc/	4f#	4c#	きゅう	4a#	きゅう	4cc#	きゅう	4f#	きゅう
8Rcc/J	.	.	.	.	.	.	.	.	.
=40	=40	=40	=40	=40	=40	=40	=40	=40	=40
4Raa/	8BL	4d#	tuh	4f#	tuh	4b	tuh	4b	まえ
.	8BJ	.	.	.	.	.	.	.	.
8Rcc/L	8AnL	8r	.	8r	.	8r	.	8anL	に
8Rf/J	16AL	[8d#	tuh	[8f#	tuh	[8b	tuh	[8bJ	みち
.	[16BJJ	.	.	.	.	.	.	.	.
8Rgg/L	16BLL]	2d#]	.	2f#]	.	2b]	.	8bL]	.
.	16BJ	.	.	.	.	.	.	.	.
8Rf/	8BJ	.	.	.	.	.	.	8a	な
8Rcc/	8AL	.	.	.	.	.	.	8f#	ど
8Rgg/J	8A#XJ	.	.	.	.	.	.	8cc#J	ナッ
=41	=41	=41	=41	=41	=41	=41	=41	=41	=41
8Rf\L	8BL	4d#	tuh	4f#	tuh	4an	tuh	8r	.
8Rgg\	16c#L	.	.	.	.	.	.	[4.b	シング
.	16d#JJ	.	.	.	.	.	.	.	.
8Rcc\	8f#L	8r	.	8r	.	8r	.	.	.
8Rf\J	[8bJ	[8d#	tuh	[8f#	tuh	[8a	tuh	.	.
8Rgg/L	8bL]	2d#]	.	2f#]	.	2a]	.	4b]	.
8Rf/	8anJ	.	.	.	.	.	.	.	.
8Rcc/	4b	.	.	.	.	.	.	4f#	そう
8Rf/J	.	.	.	.	.	.	.	.	.
=42	=42	=42	=42	=42	=42	=42	=42	=42	=42
8.Rcc/L	8.c#L	8.e#'L	da	8.g#'L	da	8.b'L	da	8r	.
.	.	.	.	.	.	.	.	8g#L	す
16Rcc/Jk	16c#Jk	16e#Jk	ta	16g#Jk	ta	16bJk	ta	.	.
4r	4r	4r	.	4r	.	4r	.	8g#	べ
.	.	.	.	.	.	.	.	8f#J	て
8.Rcc/L	8.c#L	8.e#'L	da	8.g#'L	da	8.b'L	da	8g#L	ここ
.	.	.	.	.	.	.	.	8f#	ろ
16Rcc/Jk	16c#Jk	16e#Jk	ta	16g#Jk	ta	16bJk	ta	.	.
8r	4r	4r	.	4r	.	4r	.	8g#	い
8Rf\	.	.	.	.	.	.	.	8g#J	き
=43	=43	=43	=43	=43	=43	=43	=43	=43	=43
8Rf\L	8c#L	2B	woh	2e#	woh	2g#	woh	8eenL	お
8Rcc\	8C#	.	.	.	.	.	.	8ccn	こ
8Rcc\	8En	.	.	.	.	.	.	8b	せ
8Rf\J	8F#J	.	.	.	.	.	.	8anJ	よ
8Rcc/L	8AnL	2e#	ー	2g#	ー	2cc#	ー	4cc#X	new
8Rcc/	8F#	.	.	.	.	.	.	.	.
8Rf/	8A	.	.	.	.	.	.	4cc#	wave
8Rcc/J	8BJ	.	.	.	.	.	.	.	.
=44||	=44||	=44||	=44||	=44||	=44||	=44||	=44||	=44||	=44||
*	*k[f#c#g#]	*k[f#c#g#]	*	*k[f#c#g#]	*	*k[f#c#g#]	*	*k[f#c#g#]	*
4Raa/	4F#'	2.c#	hah	2.f#	hah	2.a	hah	4a'	スタンド
8Rcc/L	8.F#L	.	.	.	.	.	.	8f#L	アップ！
8Rgg/J	.	.	.	.	.	.	.	8aJ	モンス
.	16F#Jk	.	.	.	.	.	.	.	.
8Rf\L	16r	.	.	.	.	.	.	8r	.
.	16F#KL	.	.	.	.	.	.	.	.
8Rf\	8F#J	.	.	.	.	.	.	8f#	ター
8Rcc\	4F#	8r	.	8r	.	8r	.	8r	.
8Rgg\J	.	8c#	ちょう	8f#	ちょう	8a	ちょう	8a	ちょう
=45	=45	=45	=45	=45	=45	=45	=45	=45	=45
8Rf\L	4A'	8r	.	8r	.	8r	.	8r	.
8Rgg\J	.	8e	じょう	8g#	じょう	8b	じょう	8b	じょう
8Rcc/L	8AL	8r	.	8r	.	8r	.	8r	.
16Rgg/L	[8AJ	[8e	へ	[8a	へ	[8cc#	へ	[8cc#	へ
16Rcc/JJ	.	.	.	.	.	.	.	.	.
8Rf\L	8AL]	4e]	.	4a]	.	4cc#]	.	4cc#]	.
8Rgg\J	8A	.	.	.	.	.	.	.	.
4Rcc/	8A	4e	woo	4a	woo	4cc#	woo	8f#L	み
.	8AJ	.	.	.	.	.	.	8cc#J	ち
=46	=46	=46	=46	=46	=46	=46	=46	=46	=46
8Rf\L	4B'	2.d#X	ー	2.f#	ー	2.b	ー	4b	なき
8Rgg\J	.	.	.	.	.	.	.	.	.
8Rcc/L	8.BL	.	.	.	.	.	.	8f#L	み
16Rgg/L	.	.	.	.	.	.	.	8cc#J	ち
16Rcc/JJ	16BJk	.	.	.	.	.	.	.	.
8Rf\L	8r	.	.	.	.	.	.	4b	を
8Rf\	8B	.	.	.	.	.	.	.	.
8Rcc\	4B	8r	.	8r	.	8r	.	8r	.
8Rgg\J	.	[8dn	da	[8f#	da	[8a	da	[8b	き
=47	=47	=47	=47	=47	=47	=47	=47	=47	=47
8Rf\L	8dL	4d]	.	4f#]	.	4a]	.	8bL]	.
8Rgg\	8dJ	.	.	.	.	.	.	8a	り
8Rcc\	8.dL	8r	.	8r	.	8r	.	8b	ひ
8Rgg\J	.	[8e	ta	[8g#	ta	[8b	ta	8ccnJ	ら
.	16dJk	.	.	.	.	.	.	.	.
8Rf\L	8eL	4e]	.	4g#]	.	4b]	.	8bL	く
8Rf\	8e	.	.	.	.	.	.	8aJ	と
8Rcc\	8e	4B	hah	4e	hah	4g#	hah	4f#	き
8Rgg\J	8eJ	.	.	.	.	.	.	.	.
=48	=48	=48	=48	=48	=48	=48	=48	=48	=48
8Raa/L	4F#'	2.c#	ー	2.f#	ー	2.a	ー	4a'	スタンド
8Rgg/J	.	.	.	.	.	.	.	.	.
8Rcc/L	8.F#L	.	.	.	.	.	.	8f#L	アップ！
16Rgg/L	.	.	.	.	.	.	.	8aJ	ファイ
16Rcc/JJ	16F#Jk	.	.	.	.	.	.	.	.
8Rf\L	16r	.	.	.	.	.	.	8r	.
.	16F#KL	.	.	.	.	.	.	.	.
8Rf\	8F#J	.	.	.	.	.	.	8f#	ター
8Rcc\	4F#	8r	.	8r	.	8r	.	8r	.
8Rgg\J	.	8c#	とん	8f#	とん	8a	とん	8a	とん
=49	=49	=49	=49	=49	=49	=49	=49	=49	=49
8Rf\L	4A'	8r	.	8r	.	8r	.	8r	.
8Rgg\J	.	8d#X	が	8g#	が	8b	が	8b	が
8Rcc/L	8AL	8r	.	8r	.	8r	.	8r	.
16Rgg/L	[8AJ	[8e	って	[8a	って	[8cc#	って	[8cc#	って
16Rcc/JJ	.	.	.	.	.	.	.	.	.
8Rf\L	8AL]	4e]	.	4a]	.	4cc#]	.	4cc#]	.
8Rf\J	8A	.	.	.	.	.	.	.	.
4Rcc/	8A	4e	woo	4a	woo	4cc#	woo	8f#L	go-
.	8AJ	.	.	.	.	.	.	8cc#J	-ing
=50	=50	=50	=50	=50	=50	=50	=50	=50	=50
8Rf\L	4B'	2.d#X	ー	2.f#	ー	2.b	ー	4b	on
8Rgg\J	.	.	.	.	.	.	.	.	.
8Rcc/L	8.BL	.	.	.	.	.	.	8f#L	mo-
16Rgg/L	.	.	.	.	.	.	.	8eeJ	-vin'
16Rcc/JJ	16BJk	.	.	.	.	.	.	.	.
8Rf\L	8r	.	.	.	.	.	.	8cc#L	o-
8Rf\	8BL	.	.	.	.	.	.	8bJ	-n
8Rcc\	8B	8r	.	8r	.	8r	.	8r	.
8Raa\J	[8dJ	[8dn	da	[8f#	da	[8a	da	[8b	た
=51	=51	=51	=51	=51	=51	=51	=51	=51	=51
8r	8dL]	4d]	.	4f#]	.	4a]	.	8bL]	.
8Rf\L	8A	.	.	.	.	.	.	8a	た
8Rcc\	8d	8r	.	8r	.	8r	.	8b	か
8Rgg\J	8AJ	[8e	ta	[8g#	ta	[8b	ta	8ccnJ	い
8Rf\L	8eL	4e]	.	4g#]	.	4b]	.	8bL	の
8Rf\	8B	.	.	.	.	.	.	8a	う
8Rcc\	8e	8BL	hah	8eL	hah-	8g#L	hah	8f#	た
8Raa\J	[8dJ	[8dJ	ー	[8f#J	ー	[8aJ	ー	[8bJ	み
=52	=52	=52	=52	=52	=52	=52	=52	=52	=52
8r	8dL]	4d]	.	4f#]	.	4a]	.	8bL]	.
8Rf\L	8A	.	.	.	.	.	.	8a	ち
8Rcc\	8d	8r	.	8r	.	8r	.	8b	の
8Rgg\J	8AJ	[8e	ta	[8g#	ta	[8b	ta	8ccnJ	せ
8Rf\L	8eL	4e]	.	4g#]	.	4b]	.	8bL	か
8Rf\	8E	.	.	.	.	.	.	8a	い
8Rcc\	8e	8eL	hah	8g#L	hah	8bL	hah	8f#	へ
8Raa\J	[8dJ	[8f#J	ー	[8aJ	ー	[8ddJ	ー	[8f#J	タ
=53	=53	=53	=53	=53	=53	=53	=53	=53	=53
8r	8dL]	2f#]	.	2a]	.	2dd]	.	8f#L]	.
8Rf\L	8A	.	.	.	.	.	.	8eJ	マ
8Rcc\	8d	.	.	.	.	.	.	4f#	シイ
8Ree\J	8AJ	.	.	.	.	.	.	.	.
8Rf\L	8eL	2g#	ー	2b	ー	2ee	ー	8aL	レ
8Rcc\	8EJ	.	.	.	.	.	.	8f#J	ボ
8Rf\	4e	.	.	.	.	.	.	4a	リュー
8Rcc\J	.	.	.	.	.	.	.	.	.
=54	=54	=54	=54	=54	=54	=54	=54	=54	=54
*	*k[f#c#g#d#a#e#]	*k[f#c#g#d#a#e#]	*	*k[f#c#g#d#a#e#]	*	*k[f#c#g#d#a#e#]	*	*k[f#c#g#d#a#e#]	*
4Raa/	8F#L	1f#	ー	1a#	ー	1cc#	ー	1f#	ション
.	16BL	.	.	.	.	.	.	.	.
.	16c#JJ	.	.	.	.	.	.	.	.
8Rcc/L	8.en'L	.	.	.	.	.	.	.	.
8Rf/J	.	.	.	.	.	.	.	.	.
.	16f#Jk	.	.	.	.	.	.	.	.
8Rgg/L	8r	.	.	.	.	.	.	.	.
8Rf/	8f#	.	.	.	.	.	.	.	.
8Rcc/	16BLL	.	.	.	.	.	.	.	.
.	16c#	.	.	.	.	.	.	.	.
8Rgg/J	16e	.	.	.	.	.	.	.	.
.	16c#JJ	.	.	.	.	.	.	.	.
=55	=55	=55	=55	=55	=55	=55	=55	=55	=55
8Rf\L	8f#L	1c#	woo	1f#	woo	1a#	woo	1r	.
8Rgg\	16BL	.	.	.	.	.	.	.	.
.	16c#JJ	.	.	.	.	.	.	.	.
8Rcc\	16enLL	.	.	.	.	.	.	.	.
.	16f#J	.	.	.	.	.	.	.	.
8Rgg\J	[8f#J	.	.	.	.	.	.	.	.
8Rf\L	8f#L]	.	.	.	.	.	.	.	.
8Rcc\	8anJ	.	.	.	.	.	.	.	.
8Rf\	4f#	.	.	.	.	.	.	.	.
8Rcc\J	.	.	.	.	.	.	.	.	.
=56	=56	=56	=56	=56	=56	=56	=56	=56	=56
8Raa/L	8F#L	8c#L	da	8f#L	da	8a#L	da	8r	.
8Rgg/	8F#J	8c#J	da	8f#J	da	8a#J	da	8c#L	た
8Rgg/	4r	4r	.	4r	.	4r	.	8c#	ま
8Rgg/J	.	.	.	.	.	.	.	8c#J	にゃ
8Rgg/L	2r	2r	.	2r	.	2r	.	8enL	デ
8Rf/	.	.	.	.	.	.	.	8f#J	リ
8Rgg/	.	.	.	.	.	.	.	4f#	ケート
8Rgg/J	.	.	.	.	.	.	.	.	.
=57	=57	=57	=57	=57	=57	=57	=57	=57	=57
8Rf\L	8EnL	8BL	da	8enL	da	8g#L	da	8r	.
8Rf\	8EJ	8BJ	da	8eJ	da	8g#J	da	8cnL	さ
8Rgg\	4r	4r	.	4r	.	4r	.	8B	れ
8Rgg\J	.	.	.	.	.	.	.	8AnJ	ど
8Rgg/L	4r	2r	.	2r	.	2r	.	8BL	ポー
8Rf/	.	.	.	.	.	.	.	8AJ	カー
8Rgg/	8r	.	.	.	.	.	.	4c#X	フェイス
8Rgg/J	8E	.	.	.	.	.	.	.	.
=58	=58	=58	=58	=58	=58	=58	=58	=58	=58
8Rf\L	8BL	8d#L	da	8f#L	da	8bL	da	8r	.
8Rf\	8BJ	8d#J	da	8f#J	da	8bJ	da	8enL	と
8Rgg\	4r	4r	.	4r	.	4r	.	8B	き
8Rf\J	.	.	.	.	.	.	.	8AnJ	に
8Rgg/L	4r	8r	.	4r	.	4r	.	8BL	こ
8Rf/	.	4.d#	woh	.	.	.	.	8A	と
8Rgg/	8r	.	.	4f#	woh	8r	.	8A	ば
8Rgg/J	8B	.	.	.	.	8b	woh	8BJ	は
=59	=59	=59	=59	=59	=59	=59	=59	=59	=59
8Rcc/L	4c#'	4e#'	ta	4g#'	ta	4cc#'	ta	8c#L	わ
8Rf/	.	.	.	.	.	.	.	8cnJ	ざ
8Rcc/	8c#L	4e#'	ta	4g#'	ta	4cc#'	ta	4c#X	わい
8Rf/J	16F#L	.	.	.	.	.	.	.	.
.	16G#JJ	.	.	.	.	.	.	.	.
8Rcc/L	8c#L	4e#'	ta	4g#'	ta	4cc#'	ta	8c#L	い
8Rf/	8cnJ	.	.	.	.	.	.	8cnJ	ざ
8Rcc/	4c#X	4e#'	ta	4g#'	ta	4cc#'	ta	4c#X	なう
8Rcc/J	.	.	.	.	.	.	.	.	.
=60	=60	=60	=60	=60	=60	=60	=60	=60	=60
4Raa/	8F#L	4c#	tuh	4f#	tuh	4a#	tuh	8r	.
.	8F#J	.	.	.	.	.	.	8c#L	あ
8Rcc/L	16A#KL	8.c#L	tuh	8.f#L	tuh	8.a#L	tuh	8c#	た
.	8B	.	.	.	.	.	.	.	.
8Rf/J	.	.	.	.	.	.	.	8c#J	ま
.	[16c#Jk	16c#Jk	lu	16f#Jk	lu	16a#Jk	lu	.	.
8Rgg/L	16c#KL]	8r	.	8r	.	8r	.	8enL	の
.	8en	.	.	.	.	.	.	.	.
8Rf/	.	4c#	tuh	4f#	tuh	4a#	tuh	8f#	な
.	16c#Jk	.	.	.	.	.	.	.	.
8Rcc/	8eL	.	.	.	.	.	.	8f#	か
8Rgg/J	8f#J	8c#	lu	8f#	lu	8a#	lu	8eJ	は
=61	=61	=61	=61	=61	=61	=61	=61	=61	=61
8Rf\L	8F#L	4B	tuh	4en	tuh	4g#	tuh	8anL	い
8Rf\	8F#J	.	.	.	.	.	.	8a	つ
8Rcc\	16A#KL	8.BL	tuh	8.eL	tuh	8.g#L	tuh	8f#	も
.	8B	.	.	.	.	.	.	.	.
8Rf\J	.	.	.	.	.	.	.	[8aJ	ビー
.	[16c#Jk	16BJk	lu	16eJk	lu	16g#Jk	lu	.	.
8Rgg/L	16c#KL]	8r	.	8r	.	8r	.	8aL]	.
.	8en	.	.	.	.	.	.	.	.
8Rf/	.	4B	tuh	4e	tuh	4g#	tuh	8f#	ジー
.	16c#Jk	.	.	.	.	.	.	.	.
8Rcc/	8eL	.	.	.	.	.	.	8en	.
8Rf/J	8f#J	8B	lu	8e	lu	8g#	lu	8f#J	.
=62	=62	=62	=62	=62	=62	=62	=62	=62	=62
4Raa/	4F#	4d#	da	4f#	da	4b	da	8r	.
.	.	.	.	.	.	.	.	8an	か
4r	4r	4r	.	4r	.	4r	.	4f#	っとう
4r	4b	2r	.	2r	.	2r	.	8.bL	ノン
.	.	.	.	.	.	.	.	16f#Jk	ストップ
8Rcc/L	4BB	.	.	.	.	.	.	8r	.
8Rf/J	.	.	.	.	.	.	.	8c#	た
=63	=63	=63	=63	=63	=63	=63	=63	=63	=63
8Rf\L	8F#L	2c#	woh	2e#	woh	2g#	woh	8c#L	ち
8Rgg\J	8F#J	.	.	.	.	.	.	8en	む
4Raa/	16A#KL	.	.	.	.	.	.	8f#	か
.	8B	.	.	.	.	.	.	.	.
.	.	.	.	.	.	.	.	8g#J	え
.	[16c#Jk	.	.	.	.	.	.	.	.
16Rgg/KL	16c#KL]	2e#	ー	2g#	ー	2cc#	ー	8.anL	じん
8.Rcc/J	8en	.	.	.	.	.	.	.	.
.	16c#Jk	.	.	.	.	.	.	[16f#Jk	せい
8Rf\L	8eL	.	.	.	.	.	.	8f#L]	.
8Rcc\J	8f#J	.	.	.	.	.	.	8cc#J	は
=64	=64	=64	=64	=64	=64	=64	=64	=64	=64
8Raa/L	8F#L	1c#	ー	1f#	ー	1a#	ー	8r	.
8Rgg/J	8F#J	.	.	.	.	.	.	4a#	ショー
8Rcc/L	16A#KL	.	.	.	.	.	.	.	.
.	8B	.	.	.	.	.	.	.	.
16Rgg/L	.	.	.	.	.	.	.	[8f#	タイム
16Rcc/JJ	[16c#Jk	.	.	.	.	.	.	.	.
8Rgg/L	16c#KL]	.	.	.	.	.	.	2f#]	.
.	8en	.	.	.	.	.	.	.	.
8Rf/	.	.	.	.	.	.	.	.	.
.	16c#Jk	.	.	.	.	.	.	.	.
8Rcc/	8eL	.	.	.	.	.	.	.	.
8Rcc/J	8f#J	.	.	.	.	.	.	.	.
=65	=65	=65	=65	=65	=65	=65	=65	=65	=65
8Rf\L	8F#L	2c#	wah	2f#	wah	2a#	wah	2r	.
8Rgg\J	8F#	.	.	.	.	.	.	.	.
4Raa/	8F#	.	.	.	.	.	.	.	.
.	[8f#J	.	.	.	.	.	.	.	.
8Rf\L	8f#L]	2f#	ー	2a#	ー	2cc#	ー	4r	.
8Rcc\J	8enJ	.	.	.	.	.	.	.	.
16Rf\KL	4f#	.	.	.	.	.	.	8r	.
8.Rcc\J	.	.	.	.	.	.	.	.	.
.	.	.	.	.	.	.	.	8c#	プ
=66	=66	=66	=66	=66	=66	=66	=66	=66	=66
4Raa/	8BL	4d#	tuh	4f#	tuh	4b	tuh	4b	ラス
.	8BJ	.	.	.	.	.	.	.	.
8Rcc/L	8AnL	8r	.	8r	.	8r	.	16anLL	と
.	.	.	.	.	.	.	.	16aJ	.
8Rf/J	16AL	[8d#	tuh	[8f#	tuh	[8b	tuh	[8bJ	マイ
.	[16BJJ	.	.	.	.	.	.	.	.
8Rgg/L	16BLL]	2d#]	.	2f#]	.	2b]	.	8bL]	.
.	16BJ	.	.	.	.	.	.	.	.
8Rf/	8BJ	.	.	.	.	.	.	8a	ナス
8Rcc/	8AL	.	.	.	.	.	.	8f#	が
8Rgg/J	8A#XJ	.	.	.	.	.	.	8cc#J	リフ
=67	=67	=67	=67	=67	=67	=67	=67	=67	=67
8Rf\L	8BL	4d#	tuh	4f#	tuh	4an	tuh	8r	.
8Rgg\	8B	.	.	.	.	.	.	[4.b	レイン
8Rcc\	8F#	8r	.	8r	.	8r	.	.	.
8Rf\J	[8BJ	[8d#	tuh	[8f#	tuh	[8a	tuh	.	.
8Rgg/L	8BL]	8d#]	.	8f#]	.	8a]	.	4b]	.
8Rf/	8An	8r	.	8r	.	8r	.	.	.
8Rcc/	8B	4f#	そう	4f#	そう	4f#	そう	4f#	そう
8Rgg/J	8F#J	.	.	.	.	.	.	.	.
=68	=68	=68	=68	=68	=68	=68	=68	=68	=68
8Rf\L	8r	8r	.	8r	.	8r	.	8r	.
8Rcc\	8c#	8c#L	ぎゃ	8c#L	ぎゃ	8cc#L	ぎゃ	8c#L	ぎゃ
8Rcc\	4c#	8c#	っきょう	8c#	っきょう	8cc#	っきょう	8c#	っきょう
8Rf\J	.	8c#J	は	8c#J	は	8cc#J	は	8c#J	は
8Rcc/L	8enL	8enL	I	8enL	I	8eenL	I	8enL	I
16Rcc/L	8f#J	8f#J	don't	8f#J	don't	8ff#J	don't	8f#J	don't
16Rf/JJ	.	.	.	.	.	.	.	.	.
4Raa/	4f#	4f#	care	4f#	care	4ff#	care	4f#	care
=69	=69	=69	=69	=69	=69	=69	=69	=69	=69
8Rf\L	8r	8r	.	8r	.	8r	.	8r	.
8Rcc\	8c#	8d#L	さい	8e#L	さい	8bL	さい	8c#L	さい
8Rcc\	4c#	8d#	きょう	8e#	きょう	8b	きょう	8c#	きょう
8Rf\J	.	8d#J	に	8e#J	に	8bJ	に	8c#J	に
8Rcc/L	8enL	8BL	へん	8g#L	へん	8bL	へん	8enL	へん
8Rgg/	8f#J	8c#J	しん	8a#J	しん	8cc#J	しん	8f#J	しん
8Rf/	4f#	4c#	ちゅう	4a#	ちゅう	4cc#	ちゅう	4f#	ちゅう
8Rcc/J	.	.	.	.	.	.	.	.	.
=70	=70	=70	=70	=70	=70	=70	=70	=70	=70
4Raa/	8BL	4d#	tuh	4f#	tuh	4b	tuh	4b	よ
.	8BJ	.	.	.	.	.	.	.	.
8Rcc/L	8AnL	8r	.	8r	.	8r	.	8anL	び
8Rf/J	16AL	[8d#	tuh	[8f#	tuh	[8b	tuh	[8bJ	さ
.	[16BJJ	.	.	.	.	.	.	.	.
8Rgg/L	16BLL]	2d#]	.	2f#]	.	2b]	.	8bL]	.
.	16BJ	.	.	.	.	.	.	.	.
8Rf/	8BJ	.	.	.	.	.	.	8a	ま
8Rcc/	8AL	.	.	.	.	.	.	8f#	せ
8Rgg/J	16BL	.	.	.	.	.	.	8cc#J	ほん
.	16c#JJ	.	.	.	.	.	.	.	.
=71	=71	=71	=71	=71	=71	=71	=71	=71	=71
8Rf\L	8BL	4d#	tuh	4f#	tuh	4an	tuh	8r	.
8Rgg\	16c#L	.	.	.	.	.	.	[4.b	のう
.	16d#JJ	.	.	.	.	.	.	.	.
8Rcc\	8f#L	8r	.	8r	.	8r	.	.	.
8Rf\J	[8bJ	[8d#	tuh	[8f#	tuh	[8a	tuh	.	.
8Rgg/L	8bL]	2d#]	.	2f#]	.	2a]	.	4b]	.
8Rf/	8anJ	.	.	.	.	.	.	.	.
8Rcc/	4b	.	.	.	.	.	.	4f#	さあ
8Rcc/J	.	.	.	.	.	.	.	.	.
=72	=72	=72	=72	=72	=72	=72	=72	=72	=72
8Rf\L	8C#L	1e#	hah	1g#	hah	1cc#	hah	8r	.
8Rgg\	8G#J	.	.	.	.	.	.	8g#L	い
8Rcc\	4c#	.	.	.	.	.	.	8g#	ば
[8Raa\J	.	.	.	.	.	.	.	8f#J	ら
8Raa/L]	8BL	.	.	.	.	.	.	8g#L	の
8Rf/	8cn	.	.	.	.	.	.	8f#	み
8Rcc/	8c#X	.	.	.	.	.	.	8g#	ち
8Rf/J	8G#J	.	.	.	.	.	.	8g#J	で
=73	=73	=73	=73	=73	=73	=73	=73	=73	=73
8Rcc/L	8c#L	4c#'	ta	4e#'	ta	4g#'	ta	8eenL	わ
8Rf/	8G#	.	.	.	.	.	.	8ccn	た
8Rcc/	8c#	4c#'	ta	4e#'	ta	4g#'	ta	8b	し
8Rf/J	8BJ	.	.	.	.	.	.	8anJ	は
8Rf\L	8cnL	4e#'	ta	4g#'	ta	4cc#'	ta	4cc#X	グレード
8Rcc\	8c#XJ	.	.	.	.	.	.	.	.
8Rf\	4G#	4e#'	ta	4g#'	ta	4cc#'	ta	4cc#	アップ
8Rcc\J	.	.	.	.	.	.	.	.	.
=74	=74	=74	=74	=74	=74	=74	=74	=74	=74
8Raa/L	4F#	[1A#	fuh	[1c#	fuh	[1f#	fuh	4r	.
8Rgg/	.	.	.	.	.	.	.	.	.
8Rgg/	8F#L	.	.	.	.	.	.	[2.cc#	.
8Rgg/J	8F#J	.	.	.	.	.	.	.	.
8Rgg/L	16F#LL	.	.	.	.	.	.	.	.
.	16EnJ	.	.	.	.	.	.	.	.
16Rgg/L	8EJ	.	.	.	.	.	.	.	.
16Rgg/JJ	.	.	.	.	.	.	.	.	.
16Rgg/LL	8EL	.	.	.	.	.	.	.	.
16Rgg/J	.	.	.	.	.	.	.	.	.
8Rgg/J	8EJ	.	.	.	.	.	.	.	.
=75	=75	=75	=75	=75	=75	=75	=75	=75	=75
8Rgg/L	16EnLL	1A#]	.	1c#]	.	1f#]	.	2cc#_	.
.	16EJ	.	.	.	.	.	.	.	.
8Rgg/	8F#J	.	.	.	.	.	.	.	.
8Rgg/	8F#L	.	.	.	.	.	.	.	.
8Rgg/J	8F#J	.	.	.	.	.	.	.	.
8Rgg/L	16F#LL	.	.	.	.	.	.	8cc#L]	.
.	16F#J	.	.	.	.	.	.	.	.
8Rgg/J	8AnJ	.	.	.	.	.	.	16bL	.
.	.	.	.	.	.	.	.	16anJJ	.
8Rgg/L	4E'	.	.	.	.	.	.	16bKL	.
.	.	.	.	.	.	.	.	8.aJ	.
16Rgg/L	.	.	.	.	.	.	.	.	.
16Rgg/JJ	.	.	.	.	.	.	.	.	.
=76	=76	=76	=76	=76	=76	=76	=76	=76	=76
8Rgg/L	4F#	[1c#	fuh	[1f#	fuh	[1a#	fuh	1f#	.
8Rgg/	.	.	.	.	.	.	.	.	.
8Rgg/	8F#L	.	.	.	.	.	.	.	.
8Rgg/J	8F#J	.	.	.	.	.	.	.	.
8Rgg/L	16F#LL	.	.	.	.	.	.	.	.
.	16EnJ	.	.	.	.	.	.	.	.
16Rgg/L	8EJ	.	.	.	.	.	.	.	.
16Rgg/JJ	.	.	.	.	.	.	.	.	.
16Rgg/LL	8EL	.	.	.	.	.	.	.	.
16Rgg/J	.	.	.	.	.	.	.	.	.
8Rgg/J	8EJ	.	.	.	.	.	.	.	.
=77	=77	=77	=77	=77	=77	=77	=77	=77	=77
8Rgg/L	16EnLL	1c#]	.	1f#]	.	1a#]	.	1r	.
.	16EJ	.	.	.	.	.	.	.	.
8Rgg/	8F#J	.	.	.	.	.	.	.	.
8Rgg/	8F#L	.	.	.	.	.	.	.	.
8Rgg/J	8F#J	.	.	.	.	.	.	.	.
8Rgg/L	16F#LL	.	.	.	.	.	.	.	.
.	16F#J	.	.	.	.	.	.	.	.
8Rgg/J	8AnJ	.	.	.	.	.	.	.	.
8Rgg/L	4E'	.	.	.	.	.	.	.	.
16Rgg/L	.	.	.	.	.	.	.	.	.
16Rgg/JJ	.	.	.	.	.	.	.	.	.
=78	=78	=78	=78	=78	=78	=78	=78	=78	=78
8Raa/L	4F#	[1c#	woh	[1f#	woh	[1a#	woh	1r	.
8Rgg/	.	.	.	.	.	.	.	.	.
8Rgg/	8F#L	.	.	.	.	.	.	.	.
8Rgg/J	8F#J	.	.	.	.	.	.	.	.
8Rgg/L	16F#LL	.	.	.	.	.	.	.	.
.	16EnJ	.	.	.	.	.	.	.	.
8Rgg/J	8EJ	.	.	.	.	.	.	.	.
8Rgg/L	8EL	.	.	.	.	.	.	.	.
16Rgg/L	8EJ	.	.	.	.	.	.	.	.
16Rgg/JJ	.	.	.	.	.	.	.	.	.
=79	=79	=79	=79	=79	=79	=79	=79	=79	=79
8Rgg/L	16EnLL	1c#]	.	1f#]	.	1a#]	.	1r	.
.	16EJ	.	.	.	.	.	.	.	.
8Rgg/	8F#J	.	.	.	.	.	.	.	.
8Rgg/	8F#L	.	.	.	.	.	.	.	.
8Rgg/J	8F#J	.	.	.	.	.	.	.	.
8Rgg/L	16F#LL	.	.	.	.	.	.	.	.
.	16F#J	.	.	.	.	.	.	.	.
8Rgg/J	8AnJ	.	.	.	.	.	.	.	.
8Rgg/L	4E'	.	.	.	.	.	.	.	.
16Rgg/L	.	.	.	.	.	.	.	.	.
16Rgg/JJ	.	.	.	.	.	.	.	.	.
=80	=80	=80	=80	=80	=80	=80	=80	=80	=80
8Raa/L	4F#	1c#	hah	1f#	hah	1cc#	hah	1r	.
8Rgg/	.	.	.	.	.	.	.	.	.
8Rgg/	8F#L	.	.	.	.	.	.	.	.
8Rgg/J	8F#J	.	.	.	.	.	.	.	.
8Rgg/L	16F#LL	.	.	.	.	.	.	.	.
.	16EnJ	.	.	.	.	.	.	.	.
8Rgg/J	8EJ	.	.	.	.	.	.	.	.
4Raa/	8EL	.	.	.	.	.	.	.	.
.	8EJ	.	.	.	.	.	.	.	.
=81	=81	=81	=81	=81	=81	=81	=81	=81	=81
8Rcc/L	16EnLL	1f#	ー	1f#	ー	1ff#	ー	1r	.
.	16EJ	.	.	.	.	.	.	.	.
8Rf/	8F#J	.	.	.	.	.	.	.	.
8Rcc/	8F#L	.	.	.	.	.	.	.	.
8Rf/J	8F#J	.	.	.	.	.	.	.	.
8Rcc/L	16F#LL	.	.	.	.	.	.	.	.
.	16F#J	.	.	.	.	.	.	.	.
8Rcc/	8AnJ	.	.	.	.	.	.	.	.
8Rcc/	4E'	.	.	.	.	.	.	.	.
8Rcc/J	.	.	.	.	.	.	.	.	.
=82	=82	=82	=82	=82	=82	=82	=82	=82	=82
8.Rcc/L	8.c#L	8.e#'L	da	8.g#'L	da	8.cc#L	da	1r	.
16Rcc/Jk	16c#Jk	16e#Jk	ta	16g#Jk	ta	[16cc#Jk	ta	.	.
4r	4r	4r	.	4r	.	4cc#]	.	.	.
8.Rcc/L	8.c#L	8.e#'L	da	8.g#'L	da	8.cc#L	da	.	.
16Rcc/Jk	16c#Jk	16e#Jk	ta	16g#Jk	ta	16cc#Jk	ta	.	.
8r	4r	4r	.	4r	.	4r	.	.	.
8Rf\	.	.	.	.	.	.	.	.	.
=83	=83	=83	=83	=83	=83	=83	=83	=83	=83
8Rf\L	8c#L	4e#	ta	4g#	ta	4cc#	ta	1r	.
8Rf\	8C#	.	.	.	.	.	.	.	.
8Rf\	8En	4r	.	4r	.	4r	.	.	.
8Rf\J	8F#J	.	.	.	.	.	.	.	.
8Rcc/L	8AnL	2r	.	2r	.	2r	.	.	.
8Rcc/	8F#	.	.	.	.	.	.	.	.
8Rcc/	8A	.	.	.	.	.	.	.	.
8Rcc/J	8BJ	.	.	.	.	.	.	.	.
=84||	=84||	=84||	=84||	=84||	=84||	=84||	=84||	=84||	=84||
*	*k[f#c#g#]	*k[f#c#g#]	*	*k[f#c#g#]	*	*k[f#c#g#]	*	*k[f#c#g#]	*
4Raa/	4F#'	4c#	スタンド	4f#	スタンド	4a'	スタンド	4a'	スタンド
8Rcc/L	8.F#L	8A'L	アップ！	8c#L	アップ！	8f#L	アップ！	8f#L	アップ！
8Rgg/J	.	8c#J	モンス	8f#J	モンス	8aJ	モンス	8aJ	モンス
.	16F#Jk	.	.	.	.	.	.	.	.
8Rf\L	16r	8r	.	8r	.	8r	.	8r	.
.	16F#KL	.	.	.	.	.	.	.	.
8Rf\	8F#J	8A	ター	8c#	ター	8f#	ター	8f#	ター
8Rcc\	4F#	8r	.	8r	.	8r	.	8r	.
8Rgg\J	.	8c#	じょう	8f#	じょう	8a	じょう	8a	じょう
=85	=85	=85	=85	=85	=85	=85	=85	=85	=85
8Rf\L	4A'	8r	.	8r	.	8r	.	8r	.
8Rgg\	.	8e	くう	8g#	くう	8b	くう	8b	くう
8Rcc\	8AL	8r	.	8r	.	8r	.	8r	.
8Rgg\J	[8AJ	[8e	へ	[8a	へ	[8cc#	へ	[8cc#	へ
8Rf\L	8AL]	4e]	.	4a]	.	4cc#]	.	4cc#]	.
8Rf\J	8A	.	.	.	.	.	.	.	.
4Rcc/	8A	8c#L	し	8eL	し	8aL	し	8f#L	し
.	8AJ	8eJ	び	8aJ	び	8cc#J	び	8cc#J	び
=86	=86	=86	=86	=86	=86	=86	=86	=86	=86
8Rf\L	4B'	4d#X	れる	4f#	れる	4b	れる	4b	れる
8Rgg\	.	.	.	.	.	.	.	.	.
8Rcc\	8.BL	8BL	う	8d#XL	う	8f#L	う	8f#L	う
8Rgg\J	.	8d#J	た	8f#J	た	8bJ	た	8cc#J	た
.	16BJk	.	.	.	.	.	.	.	.
8Rf\L	8r	4d#	を	4f#	を	4b	を	4b	を
8Rf\	8B	.	.	.	.	.	.	.	.
8Rcc\	4B	8r	.	8r	.	8r	.	8r	.
8Rgg\J	.	[8dn	hah	[8f#	hah	[8a	hah	[8b	ひ
=87	=87	=87	=87	=87	=87	=87	=87	=87	=87
8Rf\L	8dL	4d]	.	4f#]	.	4a]	.	8bL]	.
8Rgg\	8dJ	.	.	.	.	.	.	8a	び
8Rcc\	8.dL	8r	.	8r	.	8r	.	8b	か
8Rgg\J	.	[8e	ah	[8g#	ah	[8b	ah	8ccnJ	せ
.	16dJk	.	.	.	.	.	.	.	.
8Rf\L	8eL	4e]	.	4g#]	.	4b]	.	8bL	て
8Rf\	8e	.	.	.	.	.	.	8aJ	く
8Rcc\	8e	4B	ー	4e	ー	4g#	ー	4f#	れ
8Rgg\J	8eJ	.	.	.	.	.	.	.	.
=88	=88	=88	=88	=88	=88	=88	=88	=88	=88
4Raa/	4F#'	4c#	スタンド	4f#	スタンド	4a'	スタンド	4a'	スタンド
8Rcc/L	8.F#L	8A'L	アップ！	8c#L	アップ！	8f#L	アップ！	8f#L	アップ！
8Rgg/J	.	8c#J	ファイ	8f#J	ファイ	8aJ	ファイ	8aJ	ファイ
.	16F#Jk	.	.	.	.	.	.	.	.
8Rf\L	16r	8r	.	8r	.	8r	.	8r	.
.	16F#KL	.	.	.	.	.	.	.	.
8Rf\	8F#J	8A	ター	8c#	ター	8f#	ター	8f#	ター
8Rcc\	4F#	8r	.	8r	.	8r	.	8r	.
8Rgg\J	.	8c#	ごう	8f#	ごう	8a	ごう	8a	ごう
=89	=89	=89	=89	=89	=89	=89	=89	=89	=89
8Rf\L	4A'	8r	.	8r	.	8r	.	8r	.
8Rgg\	.	8e	かい	8g#	かい	8b	かい	8b	かい
8Rcc\	8AL	8r	.	8r	.	8r	.	8r	.
8Rgg\J	[8AJ	[8e	に	[8a	に	[8cc#	に	[8cc#	に
8Rf\L	8AL]	4e]	.	4a]	.	4cc#]	.	4cc#]	.
8Rf\J	8A	.	.	.	.	.	.	.	.
4Rcc/	8A	8c#L	go-	8eL	go-	8aL	go-	8f#L	go-
.	8AJ	8eJ	-ing	8aJ	-ing	8cc#J	-ing	8cc#J	-ing
=90	=90	=90	=90	=90	=90	=90	=90	=90	=90
8Rf\L	4B'	4d#X	on	4f#	on	4b	on	4b	on
8Rgg\	.	.	.	.	.	.	.	.	.
8Rcc\	8.BL	8BL	mo-	8d#X'L	mo-	8f#L	mo-	8f#L	mo-
8Rgg\J	.	8d#J	-vin'	8f#J	-vin'	8bJ	-vin	8eeJ	-vin'
.	16BJk	.	.	.	.	.	.	.	.
8Rf\L	8r	8c#L	o-	8eL	o-	8aL	o-	8cc#L	o-
8Rf\	8B	8BJ	-n	8d#J	-n	8f#J	-n	8bJ	-n
8Rcc\	4B	8r	.	8r	.	8r	.	8r	.
8Rgg\J	.	[8B	い	[8b	い	[8b	い	[8b	い
=91	=91	=91	=91	=91	=91	=91	=91	=91	=91
8Rf\L	8dL	8BL]	.	8bL]	.	8bL]	.	8bL]	.
8Rgg\	8d	8A	ま	8a	ま	8a	ま	8a	ま
8Rcc\	8d	8f#	た	8a	た	8dd	た	8b	た
8Rgg\J	8dJ	8f#J	ち	8aJ	ち	8ddJ	ち	8ccnJ	ち
8Rf\L	8eL	8g#L	あ	8bL	あ	8eeL	あ	8bL	あ
8Rf\	8BJ	8eJ	が	8g#J	が	8bJ	が	8aJ	が
8Rcc\	4e	4e	れ	4g#	れ	4b	れ	4f#	れ
8Rf\J	.	.	.	.	.	.	.	.	.
=92	=92	=92	=92	=92	=92	=92	=92	=92	=92
4Raa/	8F#	4f#'	スタンド	4a'	スタンド	4cc#	スタンド	4a'	スタンド
.	4F#	.	.	.	.	.	.	.	.
8Rcc/L	.	8c#L	アップ！	8f#L	アップ！	8aL	アップ！	8f#L	アップ！
8Rgg/J	16BLL	8f#J	モンス	8aJ	モンス	8cc#J	モンス	8aJ	モンス
.	16c#JJ	.	.	.	.	.	.	.	.
8Rf\L	16eLL	8r	.	8r	.	8r	.	8r	.
.	16f#	.	.	.	.	.	.	.	.
8Rf\	16e	8c#'	ター	8f#'	ター	8a	ター	8f#	ター
.	16f#JJ	.	.	.	.	.	.	.	.
8Rcc\	8c#L	8r	.	8r	.	8r	.	8r	.
8Rgg\J	8f#J	8c#	ちょう	8f#	ちょう	8a	ちょう	8a	ちょう
=93	=93	=93	=93	=93	=93	=93	=93	=93	=93
8Rf\L	8AL	8r	.	8r	.	8r	.	8r	.
8Rgg\	8A	8e	じょう	8g#	じょう	8b	じょう	8b	じょう
8Rcc\	8a	8r	.	8r	.	8r	.	8r	.
8Rgg\J	8AJ	[8e	へ	[8a	へ	[8cc#	へ	[8cc#	へ
8Rf\L	8AL	4e]	.	4a]	.	4cc#]	.	4cc#]	.
8Rf\	8a	.	.	.	.	.	.	.	.
8Rcc\	8e	8c#L	み	8eL	み	8a'L	み	8f#L	み
8Rgg\J	8AJ	8eJ	ち	8aJ	ち	8cc#J	ち	8cc#J	ち
=94	=94	=94	=94	=94	=94	=94	=94	=94	=94
8Rf\L	4B'	4d#X	なき	4f#	なき	4b	なき	4b	なき
8Rgg\	.	.	.	.	.	.	.	.	.
8Rcc\	8.BL	8BL	み	8d#XL	み	8f#L	み	8f#L	み
8Rgg\J	.	8d#J	ち	8f#J	ち	8bJ	ち	8cc#J	ち
.	16BJk	.	.	.	.	.	.	.	.
8Rf\L	8r	4d#	を	4f#	を	4b	を	4b	を
8Rf\	8B	.	.	.	.	.	.	.	.
8Rcc\	4B	8r	.	8r	.	8r	.	8r	.
8Rgg\J	.	[8f#	hah	[8a	hah	[8dd	hah	[8b	き
=95	=95	=95	=95	=95	=95	=95	=95	=95	=95
8Rf\L	8dL	4f#]	.	4a]	.	4dd]	.	8bL]	.
8Rgg\	8dJ	.	.	.	.	.	.	8a	り
8Rcc\	8.dL	8r	.	8r	.	8r	.	8b	ひ
8Rgg\J	.	[8g#	ah	[8b	ah	[8ee	ah	8ccnJ	ら
.	16dJk	.	.	.	.	.	.	.	.
8Rf\L	8eL	4g#]	.	4b]	.	4ee]	.	8bL	く
8Rf\	8B	.	.	.	.	.	.	8aJ	と
8Rcc\	8e	4e	ー	4g#	ー	4b	ー	4f#	き
8Rgg\J	8eJ	.	.	.	.	.	.	.	.
=96	=96	=96	=96	=96	=96	=96	=96	=96	=96
4Raa/	4F#	4f#'	スタンド	4a'	スタンド	4cc#'	スタンド	4ee'	スタンド
8Rcc/L	8f#L	8c#L	アップ！	8f#L	アップ！	8aL	アップ！	8cc#L	アップ！
8Rcc/J	[8eJ	8c#J	ファイ	8f#J	ファイ	8aJ	ファイ	8bJ	ファイ
8Rf\L	8eL]	8r	.	8r	.	8r	.	8r	.
8Rf\	8f#	8c#'	ター	8f#	ター	8a	ター	8b	ター
8Rcc\	8a	8r	.	8r	.	8r	.	8r	.
8Rgg\J	8f#J	8c#	とん	8f#	とん	8a	とん	8b	とん
=97	=97	=97	=97	=97	=97	=97	=97	=97	=97
4Raa/	8AL	8r	.	8r	.	8r	.	8r	.
.	8e	8e	が	8g#	が	8b	が	8a	が
8Rcc/L	8a	8r	.	8r	.	8r	.	8r	.
8Rgg/J	8aJ	[8e	って	[8a	って	[8cc#	って	[8cc#	って
8Rf\L	16aLL	4e]	.	4a]	.	4cc#]	.	4cc#]	.
.	16a	.	.	.	.	.	.	.	.
8Rf\	16e	.	.	.	.	.	.	.	.
.	16eJJ	.	.	.	.	.	.	.	.
8Rcc\	4A	8c#L	go-	8eL	go-	8aL	go-	8f#L	go-
8Rf\J	.	8eJ	-ing	8aJ	-ing	8cc#J	-ing	8cc#J	-ing
=98	=98	=98	=98	=98	=98	=98	=98	=98	=98
4Raa/	4B	4d#X	on	4f#	on	4b	on	4b	on
8Rcc/L	8d#XL	8BL	mo-	8d#X'L	mo-	8f#L	mo-	8f#L	mo-
8Rgg/J	8BJ	8d#J	-vin'	8f#J	-vin'	8bJ	-vin'	8eeJ	-vin'
8Rf\L	8d#	8c#L	o-	8eL	o-	8aL	o-	8cc#L	o-
8Rf\	4B	8BJ	-n	8d#J	-n	8f#J	-n	8bJ	-n
8Rcc\	.	8r	.	8r	.	8r	.	8r	.
8Raa\J	[8dn	[8dn	hah	[8f#	hah	[8a	hah	[8b	た
=99	=99	=99	=99	=99	=99	=99	=99	=99	=99
8r	4d]	4d]	.	4f#]	.	4a]	.	8bL]	.
8Rf\L	.	.	.	.	.	.	.	8a	た
8Rcc\	8AL	8r	.	8r	.	8r	.	8b	か
8Rgg\J	8dJ	[8e	ah	[8g#	ah	[8b	ah	8ccnJ	い
8Rf\L	8eL	4e]	.	4g#]	.	4b]	.	8bL	の
8Rf\	8B	.	.	.	.	.	.	8a	う
8Rcc\	8e	8BL	hah	8eL	hah	8g#L	hah	8f#	た
8Raa\J	[8dJ	[8dJ	ー	[8f#J	ー	[8aJ	ー	[8bJ	み
=100	=100	=100	=100	=100	=100	=100	=100	=100	=100
8r	4d]	4d]	.	4f#]	.	4a]	.	8bL]	.
8Rf\L	.	.	.	.	.	.	.	8a	ち
8Rcc\	8AL	8r	.	8r	.	8r	.	8b	の
8Rgg\J	8dJ	[8e	ah	[8g#	ah	[8b	ah	8ccnJ	せ
8Rf\L	8eL	4e]	.	4g#]	.	4b]	.	8bL	か
8Rf\	8B	.	.	.	.	.	.	8a	い
8Rcc\	8e	8r	.	8r	.	8r	.	8f#	へ
8Raa\J	[8dJ	[8f#	タ	[8a	タ	[8dd	タ	[8f#J	タ
=101	=101	=101	=101	=101	=101	=101	=101	=101	=101
8r	4d]	8f#L]	.	8aL]	.	8ddL]	.	8f#L]	.
8Rf\L	.	8c#J	マ	8f#J	マ	8aJ	マ	8eJ	マ
8Rcc\	8dL	4f#	シイ	4a	シイ	4dd	シイ	4f#	シイ
8Rgg\J	16AL	.	.	.	.	.	.	.	.
.	16BJJ	.	.	.	.	.	.	.	.
8Rf\L	8eL	8g#L	レ	8bL	レ	8eeL	レ	8aL	レ
8Rcc\	8BJ	8eJ	ボ	8g#J	ボ	8bJ	ボ	8f#J	ボ
8Rf\	4e	4g#	リュー	4b	リュー	4ee	リュー	4a	リュー
8Rcc\J	.	.	.	.	.	.	.	.	.
=102	=102	=102	=102	=102	=102	=102	=102	=102	=102
*	*k[f#c#g#d#a#e#]	*k[f#c#g#d#a#e#]	*	*k[f#c#g#d#a#e#]	*	*k[f#c#g#d#a#e#]	*	*k[f#c#g#d#a#e#]	*
8Raa/L	4F#	1f#	ション	1a#	ション	1cc#	ション	1f#	ション
8Rgg/	.	.	.	.	.	.	.	.	.
8Rgg/	8F#L	.	.	.	.	.	.	.	.
8Rgg/J	8F#J	.	.	.	.	.	.	.	.
8Rgg/L	16F#LL	.	.	.	.	.	.	.	.
.	16EnJ	.	.	.	.	.	.	.	.
8Rgg/J	8EJ	.	.	.	.	.	.	.	.
8Rgg/L	8EL	.	.	.	.	.	.	.	.
16Rgg/L	8EJ	.	.	.	.	.	.	.	.
16Rgg/JJ	.	.	.	.	.	.	.	.	.
=103	=103	=103	=103	=103	=103	=103	=103	=103	=103
8Rgg/L	16EnLL	1c#	woh	1f#	woh	1f#	woh	1r	.
.	16EJ	.	.	.	.	.	.	.	.
8Rgg/	8F#J	.	.	.	.	.	.	.	.
8Rgg/	8F#L	.	.	.	.	.	.	.	.
8Rgg/J	8F#J	.	.	.	.	.	.	.	.
8Rgg/L	16F#LL	.	.	.	.	.	.	.	.
.	16F#J	.	.	.	.	.	.	.	.
8Rgg/J	8AnJ	.	.	.	.	.	.	.	.
8Rgg/L	4E'	.	.	.	.	.	.	.	.
16Rgg/L	.	.	.	.	.	.	.	.	.
16Rgg/JJ	.	.	.	.	.	.	.	.	.
=104	=104	=104	=104	=104	=104	=104	=104	=104	=104
8Rgg/L	4F#	1c#	hah	1f#	hah	1a#	hah	1r	.
8Rgg/	.	.	.	.	.	.	.	.	.
8Rgg/	8F#L	.	.	.	.	.	.	.	.
8Rgg/J	8F#J	.	.	.	.	.	.	.	.
8Rgg/L	16F#LL	.	.	.	.	.	.	.	.
.	16EnJ	.	.	.	.	.	.	.	.
8Rgg/J	8EJ	.	.	.	.	.	.	.	.
4Raa/	8EL	.	.	.	.	.	.	.	.
.	8EJ	.	.	.	.	.	.	.	.
=105	=105	=105	=105	=105	=105	=105	=105	=105	=105
8Raa/L	16EnLL	16enLL	ta	16g#LL	ta	16bLL	ta	1r	.
.	16EJ	16eJ	ta	16g#J	ta	16bJ	ta	.	.
8Rcc/	8F#J	8f#J	la	8a#J	la	8cc#J	la	.	.
8Rcc/	8F#L	8f#L	la	8a#L	la	8cc#L	la	.	.
8Rcc/J	8F#J	8f#J	la	8a#J	la	8cc#J	la	.	.
16Ree/LL	4F#	8f#L	ta	8cc#L	ta	8ff#L	ta	.	.
16Rdd/	.	.	.	.	.	.	.	.	.
16Rcc/	.	8eJ	la	8bJ	la	8eenJ	la	.	.
16Rf/JJ	.	.	.	.	.	.	.	.	.
4Raa/	4F#	4f#	ta	4cc#	ta	4ff#	ta	.	.
=106	=106	=106	=106	=106	=106	=106	=106	=106	=106
*M2/4	*M2/4	*M2/4	*	*M2/4	*	*M2/4	*	*M2/4	*
8r	2r	2r	.	2r	.	2r	.	2r	.
16Ree/LL	.	.	.	.	.	.	.	.	.
16Rdd/JJ	.	.	.	.	.	.	.	.	.
4Rcc/	.	.	.	.	.	.	.	.	.
=107	=107	=107	=107	=107	=107	=107	=107	=107	=107
*M4/4	*M4/4	*M4/4	*	*M4/4	*	*M4/4	*	*M4/4	*
4Raa/	1f#	1c#	yeah	1f#	yeah	1a#	yeah	1f#	yeah
4r	.	.	.	.	.	.	.	.	.
2r	.	.	.	.	.	.	.	.	.
=108	=108	=108	=108	=108	=108	=108	=108	=108	=108
1r	[1F#	[1f#	ー	[1a#	ー	[1ff#	ー	[1cc#	ー
=109	=109	=109	=109	=109	=109	=109	=109	=109	=109
2r	1F#]	1f#]	.	1a#]	.	1ff#]	.	1cc#]	.
4r	.	.	.	.	.	.	.	.	.
16Rcc/LL	.	.	.	.	.	.	.	.	.
16Rcc/J	.	.	.	.	.	.	.	.	.
8Rf/J	.	.	.	.	.	.	.	.	.
=110	=110	=110	=110	=110	=110	=110	=110	=110	=110
1r	1r	1r	.	1r	.	1r	.	1r	.
=	=	=	=	=	=	=	=	=	=
*-	*-	*-	*-	*-	*-	*-	*-	*-	*-
